X: 24
T:Llewelyn Alaw's Polka
M:2/4
L:1/16
Q:100
S:Robin Huw Bowen
R:Polka
A:Wales
Z:brian_martin12345@yahoo.com
K:G
Bc|d2b2 c2a2|B2g2 gdBG|A2fe dcBA|GBAc Bdce|!
d2b2 c2a2|B2g2 gdBG|A2fe dcBA|G2B2G2:||!
AG|FGAB cdef|g2BB B2g2|f2AA A2f2|e3d c2A2|!
FGAB cdef|g2BB B2g2|f3e dcBA|G2G2G2:||
